Obsidian/actions/22s/kstars_clines.svg

<svg height="22" viewBox="0 0 22 22" width="22" xmlns="http://www.w3.org/2000/svg"><path d="m13.279297-.02148438v.02148438l-4.357422 7.359375-3.4648438 1.8476562-2.9960937 1.1874998-2.4609375 5.199219.81835938.384766 2.30859372-4.896485 2.7109375-1.074219 3.2949219-1.7558589 2.8554685 2.1523439 4.011719-5.4023439zm-.035156 1.85937498 1.683593 3.109375-3.123046 4.2050782-2.0000005-1.5078126z" fill="#bebebe" transform="translate(3 3)"/></svg>

<svg xmlns="http://www.w3.org/2000/svg" width="22" height="22" viewBox="0 0 22 22">
 <defs>
  <style id="current-color-scheme" type="text/css">
   .ColorScheme-Text { color:#bebebe; } .ColorScheme-Highlight { color:#4285f4; }
  </style>
 </defs>
 <path style="fill:currentColor" class="ColorScheme-Text" d="M 13.279297 -0.021484375 L 13.279297 0 L 8.921875 7.359375 L 5.4570312 9.2070312 L 2.4609375 10.394531 L 0 15.59375 L 0.81835938 15.978516 L 3.1269531 11.082031 L 5.8378906 10.007812 L 9.1328125 8.2519531 L 11.988281 10.404297 L 16 5.0019531 L 13.279297 -0.021484375 z M 13.244141 1.8378906 L 14.927734 4.9472656 L 11.804688 9.1523438 L 9.8046875 7.6445312 L 13.244141 1.8378906 z" transform="translate(3 3)"/>
</svg>
